src/assets/svg/merchant-1.svg

<svg width="37" height="37" viewBox="0 0 37 37" fill="none" xmlns="http://www.w3.org/2000/svg">
<path d="M36.4375 5.6875V3.125H32.5938V0.5625H30.0312V3.125H28.75C27.3368 3.125 26.1875 4.27556 26.1875 5.6875V8.25C26.1875 9.66322 27.3368 10.8125 28.75 10.8125H33.875V13.375H26.1875V15.9375H30.0312V18.5H32.5938V15.9375H33.875C35.2882 15.9375 36.4375 14.7882 36.4375 13.375V10.8125C36.4375 9.40056 35.2882 8.25 33.875 8.25H28.75V5.6875H36.4375ZM28.75 23.625V26.1875H32.0633L27.4688 30.7821L24.5321 27.8442C24.2922 27.6042 23.9669 27.4692 23.6276 27.4688H23.625C23.2857 27.4692 22.9604 27.6042 22.7204 27.8442L15.9375 34.6258L17.7492 36.4375L23.6263 30.5617L26.5629 33.4996C26.8032 33.7398 27.129 33.8747 27.4688 33.8747C27.8085 33.8747 28.1343 33.7398 28.3746 33.4996L33.875 27.9992V31.3125H36.4375V23.625H28.75ZM3.125 36.4375H0.5625V30.0312C0.5625 25.0856 4.58563 21.0625 9.53125 21.0625H17.2188C19.7672 21.0625 22.2028 22.1516 23.903 24.0517L21.994 25.7608C21.3931 25.0889 20.6572 24.5514 19.8343 24.1833C19.0114 23.8153 18.1202 23.625 17.2188 23.625H9.53125C5.99884 23.625 3.125 26.4988 3.125 30.0312V36.4375ZM13.375 18.5C15.7537 18.5 18.0349 17.5551 19.7169 15.8731C21.3988 14.1911 22.3438 11.9099 22.3438 9.53125C22.3438 7.15259 21.3988 4.87135 19.7169 3.18939C18.0349 1.50742 15.7537 0.5625 13.375 0.5625C10.9963 0.5625 8.7151 1.50742 7.03314 3.18939C5.35117 4.87135 4.40625 7.15259 4.40625 9.53125C4.40625 11.9099 5.35117 14.1911 7.03314 15.8731C8.7151 17.5551 10.9963 18.5 13.375 18.5ZM13.375 3.125C15.074 3.125 16.7035 3.79994 17.9049 5.00135C19.1063 6.20275 19.7812 7.83221 19.7812 9.53125C19.7812 11.2303 19.1063 12.8597 17.9049 14.0612C16.7035 15.2626 15.074 15.9375 13.375 15.9375C11.676 15.9375 10.0465 15.2626 8.8451 14.0612C7.64369 12.8597 6.96875 11.2303 6.96875 9.53125C6.96875 7.83221 7.64369 6.20275 8.8451 5.00135C10.0465 3.79994 11.676 3.125 13.375 3.125Z" fill="#00C700"/>
</svg>

<svg xmlns="http://www.w3.org/2000/svg" width="37" height="37" fill="none"><path fill="#00C700" d="M36.438 5.688V3.125h-3.844V.563H30.03v2.562h-1.28a2.566 2.566 0 0 0-2.562 2.563V8.25a2.565 2.565 0 0 0 2.562 2.563h5.125v2.562h-7.687v2.563h3.843V18.5h2.563v-2.562h1.281a2.565 2.565 0 0 0 2.563-2.563v-2.562a2.566 2.566 0 0 0-2.563-2.563H28.75V5.688zM28.75 23.625v2.563h3.313l-4.594 4.594-2.937-2.938a1.28 1.28 0 0 0-.904-.375h-.003c-.34 0-.665.135-.905.375l-6.782 6.782 1.811 1.812 5.877-5.876 2.937 2.938a1.28 1.28 0 0 0 1.812 0l5.5-5.5v3.313h2.563v-7.688zM3.125 36.438H.563V30.03c0-4.945 4.023-8.968 8.968-8.968h7.688a8.98 8.98 0 0 1 6.684 2.989l-1.909 1.709a6.4 6.4 0 0 0-4.775-2.136H9.53a6.413 6.413 0 0 0-6.406 6.406zM13.375 18.5a8.969 8.969 0 1 0 0-17.937 8.969 8.969 0 0 0 0 17.937m0-15.375a6.406 6.406 0 1 1 0 12.813 6.406 6.406 0 0 1 0-12.813"/></svg>
